!!!COM: Johanna Kinkel
!!!CNT: Deutsch
!!!TXO: Deutsch
!!!OTL: An Luna
!!!LYR: Goethe
!!!OPR: Sechs Lieder
!!!OPS: Op. 6
!!!ONM: No. 4
!!!ENC: Ben Fuhrman
!!!YOR: Johanna Kinkel: Lieder, volume 1 Poetry by Geibel and Goethe
!!!YOR: Bryn Mawr, Fildegard Publishing CO, 2000
!!!ODT: 1837
!!NB: Only vocal melody encoded.
!!NB: First instance of melodic material only encoded.
!!created: 2/23/10 3:34PM
!!proofed and posted: 2/23/10 3:35PM
**kern	**silbe
*clef G2	*
*k[b-e-a-d-]	*
*M4/4	*
*MM[Andantino]	*
=1	=1
{2.e-	{Schwe-
4e-	-ster
=2	=2
2e-	von
2a-	dem
=3	=3
(4.a-	er-
8g)	|
(4f	-sten
4g)	|
=4	=4
2a-}	Licht,}
2r	.
=5	=5
{2a-	{Bild
(4g	der
4a-)	|
=6	=6
2.b-	Za2rt
4g	-lich-
=7	=7
(4f	-keit
4en)	|
(4dn	in
4c)	|
=8	=8
2g	Trau-
2f}	-er!}
=9	=9
{2a-	{Ne-
(4b-	-bel
4a-)	|
=10	=10
(4a-	schwimmt
4g)	|
(4f	mit
4e-)	|
=11	=11
(4d	Sil
4f)	|
(4b-	-ber-
4a-)	|
=12	=12
2a-	-schau-
2g}	-er}
=13	=13
{2g	{um
2b-	dein
=14	=14
(8a-	rei-
8cc-	|
8b-	|
8a-	|
8g	|
8a-)	|
8c-	-zen-
8d-	|
=15	=15
(2e-S	-des
4cc-	Ge-
4b-)	|
=16	=16
2a-}	-sicht.}
2r	.
=17	=17
{2g#	{Dei-
(4f#	-nes
4en)	|
=18	=18
(4an	lei-
4en)	|
2en	-sen
=19	=19
2.g#	Fus-
4bn	-ses
=20	=20
(2bn	Lauf
2an)}	|}
=21	=21
{2an	{weckt
(4g	aus
4f)	|
=22	=22
2.f	tag-
4b-	-ver-
=23	=23
2b-	-schloss-
(4an	-nen
4cc)	|
=24	=24
2cc	Ho2h-
(4b-	-len
4a-)}	|}
=25	=25
{2g	{trau-
(4cc	-rig
4b-)	|
=26	=26
2.a-	ab-
4a-	-ge-
=27	=27
(4a-	-schied-
4g)	|
(4f	-ne
4g)	|
=28	=28
2a-	See-
4e-}	-len,}
4r	.
=29	=29
{(4e-	{mich,
4a-)	|
(4a-	und
4cc)	|
=30	=30
(4.cc	na2cht'-
8b-)	|
8a-	|
8e-	|
8c	-ge
8d-	|
=31	=31
(2e-	Vo2-
4f)	|
4g	-gel
=32	=32
2a-}	auf.}
2r	.
==	==
*-	*-
